img/svgicons/free.svg

<svg width="117" height="40" viewBox="0 0 117 40" fill="none" xmlns="http://www.w3.org/2000/svg">
<path d="M4.84033 0.449707C4.84033 0.449707 0 1.31357 0 5.6739C0 10.0339 0 32.3449 0 32.3449C0 32.3449 0.537449 26.9719 4.84033 26.9719H96L86.7039 13.2382L96 0.449707H4.84033Z" fill="#E1843E"/>
<path d="M12.71 10.6402H18.02V12.0802H14.36V13.4402H16.08C16.8467 13.4402 17.4433 13.6269 17.87 14.0002C18.3033 14.3669 18.52 14.8869 18.52 15.5602C18.52 16.2536 18.3133 16.7902 17.9 17.1702C17.4867 17.5502 16.9033 17.7402 16.15 17.7402H12.71V10.6402ZM15.96 16.3502C16.2467 16.3502 16.4633 16.2802 16.61 16.1402C16.7633 15.9936 16.84 15.7936 16.84 15.5402C16.84 15.3069 16.7667 15.1169 16.62 14.9702C16.4733 14.8169 16.2533 14.7402 15.96 14.7402H14.36V16.3502H15.96ZM25.0383 16.3002V17.7402H20.0483V10.6402H24.9483V12.0802H21.6883V13.4602H24.4883V14.7902H21.6883V16.3002H25.0383ZM26.0774 14.1302C26.0774 13.7036 26.1574 13.2802 26.3174 12.8602C26.4774 12.4336 26.7108 12.0536 27.0174 11.7202C27.3241 11.3869 27.6974 11.1169 28.1374 10.9102C28.5774 10.7036 29.0774 10.6002 29.6374 10.6002C30.3041 10.6002 30.8808 10.7436 31.3674 11.0302C31.8608 11.3169 32.2274 11.6902 32.4674 12.1502L31.2074 13.0302C31.1274 12.8436 31.0241 12.6902 30.8974 12.5702C30.7774 12.4436 30.6441 12.3436 30.4974 12.2702C30.3508 12.1902 30.2008 12.1369 30.0474 12.1102C29.8941 12.0769 29.7441 12.0602 29.5974 12.0602C29.2841 12.0602 29.0108 12.1236 28.7774 12.2502C28.5441 12.3769 28.3508 12.5402 28.1974 12.7402C28.0441 12.9402 27.9308 13.1669 27.8574 13.4202C27.7841 13.6736 27.7474 13.9302 27.7474 14.1902C27.7474 14.4702 27.7908 14.7402 27.8774 15.0002C27.9641 15.2602 28.0874 15.4902 28.2474 15.6902C28.4141 15.8902 28.6108 16.0502 28.8374 16.1702C29.0708 16.2836 29.3308 16.3402 29.6174 16.3402C29.7641 16.3402 29.9141 16.3236 30.0674 16.2902C30.2274 16.2502 30.3774 16.1936 30.5174 16.1202C30.6641 16.0402 30.7974 15.9402 30.9174 15.8202C31.0374 15.6936 31.1341 15.5402 31.2074 15.3602L32.5474 16.1502C32.4408 16.4102 32.2808 16.6436 32.0674 16.8502C31.8608 17.0569 31.6208 17.2302 31.3474 17.3702C31.0741 17.5102 30.7841 17.6169 30.4774 17.6902C30.1708 17.7636 29.8708 17.8002 29.5774 17.8002C29.0641 17.8002 28.5908 17.6969 28.1574 17.4902C27.7308 17.2769 27.3608 16.9969 27.0474 16.6502C26.7408 16.3036 26.5008 15.9102 26.3274 15.4702C26.1608 15.0302 26.0774 14.5836 26.0774 14.1302ZM34.0022 10.6402H39.9722V17.7402H38.3322V12.0802H35.6522V17.7402H34.0022V10.6402ZM44.4948 13.1002C44.4081 14.0002 44.2981 14.7536 44.1648 15.3602C44.0381 15.9602 43.8614 16.4436 43.6348 16.8102C43.4081 17.1702 43.1181 17.4269 42.7648 17.5802C42.4114 17.7336 41.9714 17.8102 41.4448 17.8102L41.3948 16.3702C41.6348 16.3436 41.8348 16.2869 41.9948 16.2002C42.1614 16.1069 42.3014 15.9336 42.4148 15.6802C42.5281 15.4202 42.6214 15.0536 42.6948 14.5802C42.7748 14.1069 42.8514 13.4736 42.9248 12.6802L43.1048 10.6402H47.7148V17.7402H46.0748V12.0802H44.5948L44.4948 13.1002ZM51.6334 10.6402H53.1134L55.7034 17.7402H54.0234L53.4734 16.1502H51.2634L50.7234 17.7402H49.0434L51.6334 10.6402ZM53.2034 15.0202L52.3734 12.5102L51.5234 15.0202H53.2034ZM61.7095 12.0802H59.5495V17.7402H57.9095V12.0802H55.7395V10.6402H61.7095V12.0802ZM69.2505 10.6402V17.7402H67.6105V14.8302H64.7805V17.7402H63.1405V10.6402H64.7805V13.3902H67.6105V10.6402H69.2505ZM74.3595 17.8002C73.8329 17.8002 73.3529 17.6969 72.9195 17.4902C72.4862 17.2836 72.1162 17.0136 71.8095 16.6802C71.5029 16.3402 71.2629 15.9536 71.0895 15.5202C70.9229 15.0869 70.8395 14.6402 70.8395 14.1802C70.8395 13.7136 70.9262 13.2636 71.0995 12.8302C71.2795 12.3969 71.5262 12.0169 71.8395 11.6902C72.1595 11.3569 72.5362 11.0936 72.9695 10.9002C73.4029 10.7002 73.8762 10.6002 74.3895 10.6002C74.9162 10.6002 75.3962 10.7036 75.8295 10.9102C76.2629 11.1169 76.6329 11.3902 76.9395 11.7302C77.2462 12.0702 77.4829 12.4569 77.6495 12.8902C77.8162 13.3236 77.8995 13.7636 77.8995 14.2102C77.8995 14.6769 77.8095 15.1269 77.6295 15.5602C77.4562 15.9936 77.2129 16.3769 76.8995 16.7102C76.5862 17.0369 76.2129 17.3002 75.7795 17.5002C75.3462 17.7002 74.8729 17.8002 74.3595 17.8002ZM72.5095 14.2002C72.5095 14.4736 72.5495 14.7402 72.6295 15.0002C72.7095 15.2536 72.8262 15.4802 72.9795 15.6802C73.1395 15.8802 73.3362 16.0402 73.5695 16.1602C73.8029 16.2802 74.0695 16.3402 74.3695 16.3402C74.6829 16.3402 74.9562 16.2769 75.1895 16.1502C75.4229 16.0236 75.6162 15.8602 75.7695 15.6602C75.9229 15.4536 76.0362 15.2236 76.1095 14.9702C76.1895 14.7102 76.2295 14.4469 76.2295 14.1802C76.2295 13.9069 76.1895 13.6436 76.1095 13.3902C76.0295 13.1302 75.9095 12.9036 75.7495 12.7102C75.5895 12.5102 75.3929 12.3536 75.1595 12.2402C74.9329 12.1202 74.6695 12.0602 74.3695 12.0602C74.0562 12.0602 73.7829 12.1236 73.5495 12.2502C73.3229 12.3702 73.1295 12.5302 72.9695 12.7302C72.8162 12.9302 72.6995 13.1602 72.6195 13.4202C72.5462 13.6736 72.5095 13.9336 72.5095 14.2002Z" fill="white"/>
</svg>

<svg width="117" height="40" fill="none" xmlns="http://www.w3.org/2000/svg"><path d="M4.84.45S0 1.314 0 5.674v26.67s.537-5.372 4.84-5.372H96l-9.296-13.734L96 .45H4.84Z" fill="#E1843E"/><path d="M12.71 10.64h5.31v1.44h-3.66v1.36h1.72c.767 0 1.363.187 1.79.56.433.367.65.887.65 1.56 0 .694-.207 1.23-.62 1.61-.413.38-.997.57-1.75.57h-3.44v-7.1Zm3.25 5.71c.287 0 .503-.07.65-.21.153-.146.23-.346.23-.6a.771.771 0 0 0-.22-.57c-.147-.153-.367-.23-.66-.23h-1.6v1.61h1.6Zm9.078-.05v1.44h-4.99v-7.1h4.9v1.44h-3.26v1.38h2.8v1.33h-2.8v1.51h3.35Zm1.04-2.17c0-.426.08-.85.24-1.27a3.467 3.467 0 0 1 1.82-1.95c.44-.206.94-.31 1.5-.31.666 0 1.243.144 1.73.43.493.287.86.66 1.1 1.12l-1.26.88a1.363 1.363 0 0 0-.31-.46 1.433 1.433 0 0 0-.4-.3 1.458 1.458 0 0 0-.45-.16 2.117 2.117 0 0 0-.45-.05 1.694 1.694 0 0 0-1.4.68 2.04 2.04 0 0 0-.34.68c-.074.254-.11.51-.11.77 0 .28.043.55.13.81.086.26.21.49.37.69.166.2.363.36.59.48.233.114.493.17.78.17.146 0 .296-.016.45-.05a1.744 1.744 0 0 0 .85-.47c.12-.126.216-.28.29-.46l1.34.79c-.107.26-.267.494-.48.7-.207.207-.447.38-.72.52-.274.14-.564.247-.87.32-.307.074-.607.11-.9.11-.514 0-.987-.103-1.42-.31a3.73 3.73 0 0 1-1.11-.84 3.953 3.953 0 0 1-.72-1.18 3.757 3.757 0 0 1-.25-1.34Zm7.924-3.49h5.97v7.1h-1.64v-5.66h-2.68v5.66h-1.65v-7.1Zm10.493 2.46c-.087.9-.197 1.654-.33 2.26-.127.6-.304 1.084-.53 1.45-.227.36-.517.617-.87.77-.354.154-.794.23-1.32.23l-.05-1.44c.24-.026.44-.083.6-.17.166-.093.306-.266.42-.52.113-.26.206-.626.28-1.1.08-.473.156-1.106.23-1.9l.18-2.04h4.61v7.1h-1.64v-5.66h-1.48l-.1 1.02Zm7.138-2.46h1.48l2.59 7.1h-1.68l-.55-1.59h-2.21l-.54 1.59h-1.68l2.59-7.1Zm1.57 4.38-.83-2.51-.85 2.51h1.68Zm8.506-2.94h-2.16v5.66h-1.64v-5.66h-2.17v-1.44h5.97v1.44Zm7.541-1.44v7.1h-1.64v-2.91h-2.83v2.91h-1.64v-7.1h1.64v2.75h2.83v-2.75h1.64Zm5.11 7.16a3.302 3.302 0 0 1-1.44-.31 3.587 3.587 0 0 1-1.11-.81 3.856 3.856 0 0 1-.72-1.16 3.704 3.704 0 0 1-.25-1.34c0-.466.086-.916.26-1.35a3.562 3.562 0 0 1 1.87-1.93c.433-.2.906-.3 1.42-.3.526 0 1.006.104 1.44.31.433.207.803.48 1.11.82.306.34.543.727.71 1.16.166.434.25.874.25 1.32 0 .467-.09.917-.27 1.35a3.63 3.63 0 0 1-.73 1.15c-.314.327-.687.59-1.12.79-.434.2-.907.3-1.42.3Zm-1.85-3.6c0 .274.04.54.12.8.08.254.196.48.35.68a1.725 1.725 0 0 0 1.39.66c.313 0 .586-.063.82-.19.233-.126.426-.29.58-.49.153-.206.266-.436.34-.69a2.672 2.672 0 0 0 0-1.58c-.08-.26-.2-.486-.36-.68-.16-.2-.357-.356-.59-.47-.227-.12-.49-.18-.79-.18-.314 0-.587.064-.82.19-.227.12-.42.28-.58.48-.154.2-.27.43-.35.69-.074.254-.11.514-.11.78Z" fill="#fff"/></svg>
